X: 33608
T: Rakish Paddy
R: reel
M: 4/4
K: Dmixolydian
cBcd cAAB|cAAG EG~G2|Add^c d2ec|dcAG FGAB|
cded cAAB|c/B/A AG EGGE|D2ED EA~A2|dcAG F/G/A D2:|
|:eg~g2 ag~g2|eg~g2 edBd|ea~a2 agag|eaag edBd|
eg~g2 ag~g2|effe defg|affe fdee|1 dcAG F/G/A D2:|2 dcAG FGAB||

